symbols-de/shields/motorway_5x4_z18.svg

<?xml version="1.0" encoding="UTF-8" standalone="no"?>
<svg
   xmlns:dc="http://purl.org/dc/elements/1.1/"
   xmlns:cc="http://creativecommons.org/ns#"
   xmlns:rdf="http://www.w3.org/1999/02/22-rdf-syntax-ns#"
   xmlns:svg="http://www.w3.org/2000/svg"
   xmlns="http://www.w3.org/2000/svg"
   xmlns:sodipodi="http://sodipodi.sourceforge.net/DTD/sodipodi-0.dtd"
   xmlns:inkscape="http://www.inkscape.org/namespaces/inkscape"
   width="100%"
   height="100%"
   viewBox="0 0 45.0 50.0"
   id="svg2"
   version="1.1"
   inkscape:version="0.91 r13725"
   sodipodi:docname="autobahn_5x4_z18.svg">
  <metadata
     id="metadata9">
    <rdf:RDF>
      <cc:Work
         rdf:about="">
        <dc:format>image/svg+xml</dc:format>
        <dc:type
           rdf:resource="http://purl.org/dc/dcmitype/StillImage" />
        <dc:title></dc:title>
      </cc:Work>
    </rdf:RDF>
  </metadata>
  <defs
     id="defs7" />
  <sodipodi:namedview
     pagecolor="#ffffff"
     bordercolor="#666666"
     borderopacity="1"
     objecttolerance="10"
     gridtolerance="10"
     guidetolerance="10"
     inkscape:pageopacity="0"
     inkscape:pageshadow="2"
     inkscape:window-width="946"
     inkscape:window-height="713"
     id="namedview5"
     showgrid="false"
     inkscape:zoom="4.72"
     inkscape:cx="22.5"
     inkscape:cy="25"
     inkscape:window-x="305"
     inkscape:window-y="156"
     inkscape:window-maximized="0"
     inkscape:current-layer="svg2" />
  <path
     style="fill:#365eaf;fill-opacity:1;stroke:#0528a2;stroke-width:1;stroke-miterlimit:4;stroke-dasharray:none;stroke-opacity:1"
     d="m 22.500001,0.50000103 c -0.315411,0 -0.472657,0.003942 -0.472657,0.0140064 L 1.2106376,2.6288126 c -0.47311805,0.101406 -0.71063758,0.254696 -0.71063758,0.4575082 0,14.6091212 0,29.2182412 0,43.8273612 0,0.202811 0.23751953,0.356105 0.71063758,0.457507 l 20.8167064,2.114806 c 0,0.01013 0.157249,0.014 0.472657,0.014 0.315412,0 0.472657,-0.0039 0.472657,-0.014 l 20.816706,-2.114806 c 0.47312,-0.101408 0.710638,-0.254696 0.710638,-0.457507 0,-14.609119 0,-29.21824 0,-43.8273612 0,-0.2028122 -0.237518,-0.3561045 -0.710638,-0.4575082 L 22.972658,0.51400621 c 0,-0.0101593 -0.15725,-0.0140064 -0.472657,-0.0140064 z"
     id="path6"
     inkscape:connector-curvature="0"
     sodipodi:nodetypes="sccccccsccccccs" />
</svg>

<?xml version="1.0" encoding="UTF-8"?>
<svg xmlns="http://www.w3.org/2000/svg" xmlns:xlink="http://www.w3.org/1999/xlink" width="44pt" height="66pt" viewBox="0 0 44 66" version="1.1">
<g id="surface1">
<path style="fill-rule:nonzero;fill:rgb(21.176471%,36.862745%,68.627451%);fill-opacity:1;stroke-width:1;stroke-linecap:butt;stroke-linejoin:miter;stroke:rgb(1.960784%,15.686275%,63.529412%);stroke-opacity:1;stroke-miterlimit:4;" d="M 22.5 0.500118 C 22.184393 0.500118 22.028587 0.503078 22.028587 0.514915 L 1.210494 2.627841 C 0.73908 2.731416 0.499379 2.882339 0.499379 3.086529 C 0.499379 17.696496 0.499379 32.303504 0.499379 46.913471 C 0.499379 47.117661 0.73908 47.268584 1.210494 47.372159 L 22.028587 49.485085 C 22.028587 49.496922 22.184393 49.499882 22.5 49.499882 C 22.815607 49.499882 22.971413 49.496922 22.971413 49.485085 L 43.789506 47.372159 C 44.26092 47.268584 44.500621 47.117661 44.500621 46.913471 C 44.500621 32.303504 44.500621 17.696496 44.500621 3.086529 C 44.500621 2.882339 44.26092 2.731416 43.789506 2.627841 L 22.971413 0.514915 C 22.971413 0.503078 22.815607 0.500118 22.5 0.500118 Z M 22.5 0.500118 " transform="matrix(0.977778,0,0,1.32,0,0)"/>
</g>
</svg>
